!!!SOCIAL_FUNCTION: songs of the wolf society
!!!SOCIAL_FUNCTION2: Wolf Society
!!!PDT:	1929
!!!LING_GROUP: Caddoan
!!!LANG: Non-Tone
!!!REG: Oklahoma
!!!COM: Anon.
!!!OTL: The White Fox
!!!ODT: <1920//
!!!MPN: Tutukrawitsu [He overtook the enemy, Wicita Blain]
!!!MLC: Pawnee, Oklahoma, United States of America
!! Song was recorded either 1919 or 1920.
!!!AGN: monody
!!!AMT: irregular
!!!RWG: Transcribed pitches, durations, and meters are only approximate.
!! Drum not recorded
!! N.B. The text from the final six measures is missing in the original.
**kern	**silbe	**words	**words
*ICvox	*LPawnee	*LPawnee	*LEnglish
*Imale	*	*	*
*clefF4	*	*	*
*k[b-]	*	*	*
*M2/4	*M2/4	*M2/4	*M2/4
*MM69	*MM69	*MM69	*MM69
=1-	=1-	=1-	=1-
[2F	A	.	.
=2	=2	=2	=2
2F]	|	.	.
*M3/4	*M3/4	*M3/4	*M3/4
=3	=3	=3	=3
16f	Ha	Ha	Yonder
16f	i	i	it
8f	ra	ra	comes
4f	he	?	?
8f	i	?	?
(16d	ya	?	?
16c)	|	.	.
=4	=4	=4	=4
8d	ha	ha	yonder
8c	i	i	it
(8c	ra	ra	comes
16A	|	.	.
16G)	|	.	.
4r;	.	.	.
=5	=5	=5	=5
16c	ha	ha	yonder
16c	i	i	it
8c	ra	ra	comes
(8d	he	?	?
8c)	|	.	.
8c	i	?	?
(16A-	ya	?	?
16G)	|	.	.
=6	=6	=6	=6
16A-	a	?	?
16G	i	?	?
8G	ya	?	?
(16G	i	?	?
16F)	|	.	.
8F	a	?	?
4F;	he	?	?
*M2/4	*M2/4	*M2/4	*M2/4
=7	=7	=7	=7
8G	ti	ti	this
8G	re	re	then
8.G	ka-	kahura	the expanse of earth
16A-	-hu-	.	.
=8	=8	=8	=8
8.G	-ra	.	.
16F	ra	ra	has
4F	wa	wa	width
=9	=9	=9	=9
2F	he	?	?
=10	=10	=10	=10
[2F	he	?	?
=11	=11	=11	=11
2F]	|	?	?
=12	=12	=12	=12
2F	ho	?	?
*M3/4	*M3/4	*M3/4	*M3/4
=13	=13	=13	=13
8c	i-	irari	my brother
8c	-ra-	.	.
8.c	-ri	.	.
16c	ti	ti	he
(16G	wa	waku	spoke
16F)	|	.	.
8G	-ku	.	.
=14	=14	=14	=14
8c	i-	isa	behold
8c	-sa	.	.
8.c	ka-	kahura	the expanse
16d	-hu-	.	.
8c	-ra	.	.
8c	i	.	.
=15	=15	=15	=15
(12A-	ki-	kiwaku	the white foxes
12G)	|	.	.
12A-	-wa-	.	.
(12A-	-ku	.	.
12G)	|	.	.
12G	re	re	they
8.F	ka-	kahura	the expanse of earth
16A	-hu-	.	.
*M2/4	*M2/4	*M2/4	*M2/4
=16	=16	=16	=16
(12A-	-ra	.	.
12G)	|	.	.
12G	ra	ra	has
4F;	wa	wa	width
=17	=17	=17	=17
2F	a	.	.
*M3/4	*M3/4	*M3/4	*M3/4
=18	=18	=18	=18
8.C	?	?	?
16C	?	?	?
8.C	?	?	?
16D	?	?	?
12D	?	?	?
12C	?	?	?
12C	?	?	?
*M2/4	*M2/4	*M2/4	*M2/4
=19	=19	=19	=19
12AA-	?	?	?
12FF	?	?	?
12AA-	?	?	?
12AA-	?	?	?
12GG	?	?	?
12GG	?	?	?
=20	=20	=20	=20
4.FF	?	?	?
8AA-	?	?	?
=21	=21	=21	=21
12AA-	?	?	?
12GG	?	?	?
12GG	?	?	?
12AA-	?	?	?
12GG	?	?	?
12GG	?	?	?
=22	=22	=22	=22
2FF	?	?	?
=23	=23	=23	=23
2FF	?	?	?
==	==	==	==
*-	*-	*-	*-
!!!HAO: [no description]
!!!HTX: [no free translation]
!!!CNT: Pawnee
!!!TXO: Pawnee
!!!OCY: United States
!!!OCL: Frances Densmore
!!!YOR: Frances Densmore, "Pawnee Music"
!!!YOR: Bulletin 93, page 57, No. 29
!!!PPR: Smithsonian Institution, Bureau of American Ethnology
!!!PPR: Government Printing Office
!!!PDT: 1926
!!!PPP: Washington, DC, United States of America
!!!YEC: Electronic Copyright 2000 David Huron
!!!YER: September 2000
!!!YEN: United States of America
!!!ENC: David Huron
!!!RDT: September 3, 2000
!!!EEV: Release 1.0
!!!AIN: vox
